X: 14395
T: Galway Bay
R: hornpipe
M: 4/4
K: Gdorian
GA|:BABc dcdf|fgdf gaag|fdbg fdcA|BAGF GFDF|
GGGB BABG|DF F/F/F AGFD|G2A/B/c dcAc|1 ABG2 GDGA:|2 ABG2 G2ga||
|:afdf gaba|gfd_e dBGA|B/B/B Bc dcde|fdcB AGFD|
BFdB AFcA|BFdB AF_ec|dfga abgf|1 ddg2 gdga:|2 ddg2 gD||

